packages/core/src/svgs/berry.svg

<svg width="24" height="24" viewBox="0 0 24 24" fill="none" xmlns="http://www.w3.org/2000/svg">
<g clip-path="url(#clip0_31_6970)">
<path d="M0 0H24V24H0V0Z" fill="url(#paint0_linear_31_6970)"/>
<path d="M16.9918 17.9998H7.00864C5.99164 17.9998 5.14307 17.177 5.14307 16.1364V9.48199C5.14307 8.85285 5.45807 8.27213 5.96678 7.93356L10.9588 4.59413C11.269 4.39279 11.6308 4.28564 12.0006 4.28564C12.3704 4.28564 12.7323 4.39279 13.0425 4.59413L18.0341 7.93356C18.288 8.10414 18.4959 8.33467 18.6395 8.60474C18.7831 8.87481 18.8579 9.17612 18.8574 9.48199V16.112C18.8574 17.1534 18.0336 17.9998 16.9918 17.9998Z" fill="white"/>
<path d="M17.143 17.9999C15.1827 17.9288 13.6296 16.4099 13.6296 14.5821C13.6296 14.4634 13.7059 14.3446 13.8079 14.2735C14.4696 13.8938 14.9024 13.2291 14.9024 12.4456C14.9024 11.2585 13.8841 10.2856 12.6113 10.2856H10.396C9.86157 10.2856 9.42871 10.6894 9.42871 11.2114V17.9999H17.143Z" fill="url(#paint1_linear_31_6970)"/>
</g>
<defs>
<linearGradient id="paint0_linear_31_6970" x1="7.44814" y1="0.843" x2="15.8507" y2="24" gradientUnits="userSpaceOnUse">
<stop stop-color="#28D0FA"/>
<stop offset="1" stop-color="#635BD7"/>
</linearGradient>
<linearGradient id="paint1_linear_31_6970" x1="15.1574" y1="11.4676" x2="10.6596" y2="18.7311" gradientUnits="userSpaceOnUse">
<stop stop-color="#3257B3"/>
<stop offset="1" stop-color="#504BC1"/>
</linearGradient>
<clipPath id="clip0_31_6970">
<rect width="24" height="24" fill="white"/>
</clipPath>
</defs>
</svg>

<svg xmlns="http://www.w3.org/2000/svg" width="24" height="24" fill="none" viewBox="0 0 24 24"><g clip-path="url(#a)"><path fill="url(#b)" d="M0 0h24v24H0z"/><path fill="#fff" d="M16.992 18H7.009a1.866 1.866 0 0 1-1.866-1.864V9.482c0-.63.315-1.21.824-1.548l4.992-3.34a1.91 1.91 0 0 1 2.084 0l4.991 3.34a1.86 1.86 0 0 1 .823 1.548v6.63A1.87 1.87 0 0 1 16.992 18"/><path fill="url(#c)" d="M17.143 18c-1.96-.071-3.513-1.59-3.513-3.418 0-.119.076-.237.178-.309.662-.38 1.094-1.044 1.094-1.827 0-1.187-1.018-2.16-2.29-2.16h-2.216c-.534 0-.967.403-.967.925V18z"/></g><defs><linearGradient id="b" x1="7.448" x2="15.851" y1=".843" y2="24" gradientUnits="userSpaceOnUse"><stop stop-color="#28D0FA"/><stop offset="1" stop-color="#635BD7"/></linearGradient><linearGradient id="c" x1="15.157" x2="10.66" y1="11.468" y2="18.731" gradientUnits="userSpaceOnUse"><stop stop-color="#3257B3"/><stop offset="1" stop-color="#504BC1"/></linearGradient><clipPath id="a"><path fill="#fff" d="M0 0h24v24H0z"/></clipPath></defs></svg>
